svgs/apk_editor.svg

<svg
    xmlns="http://www.w3.org/2000/svg"
    viewBox="0 0 1204 1024"
    id="vector">
    <path
        id="path"
        d="M 925.15 180.72 L 1049.98 60.54 C 1054.285 56.022 1057.312 50.44 1058.749 44.368 C 1060.187 38.295 1059.985 31.949 1058.163 25.98 C 1056.341 20.012 1052.964 14.634 1048.38 10.4 L 1047.57 9.6 C 1033.17 -3.15 1011.56 -3.15 996.37 9.6 L 861.93 139.34 C 693.9 45.42 488.26 45.42 320.24 139.34 L 185.01 9.6 C 169.81 -3.93 145.8 -3.13 131.4 12 C 118.59 25.53 118.59 47.02 131.4 61.34 L 256.22 180.72 C 126.01 277.63 48.99 429.68 48.19 591.44 C 48.19 611.33 65 626.45 84.2 626.45 L 1096.38 626.45 C 1116.39 626.45 1132.4 611.33 1132.4 591.43 C 1131.6 429.85 1054.78 277.82 925.16 180.72 Z M 402.36 380.77 C 373.45 379.97 350.16 356.18 350.96 326.84 C 351.77 298.29 375.86 275.28 405.58 276.08 C 433.68 276.88 456.97 299.87 456.97 328.43 C 456.17 358.56 432.08 381.56 402.36 380.77 Z M 801.5 380.77 C 772.59 381.57 748.49 359.35 746.89 330.01 C 746.08 301.46 768.57 277.67 798.29 276.08 L 801.49 276.08 C 830.4 275.28 854.5 297.5 856.11 326.84 C 856.91 355.39 834.43 379.18 804.71 380.77 L 801.49 380.77 Z M 644.81 796.67 C 630.69 795.1 615.69 795.1 601.56 795.1 L 578.64 795.1 C 577.75 806.09 578.64 817.87 578.64 828.86 L 578.64 843 L 598.04 843 C 613.94 843.78 629.82 843 645.7 840.64 C 659.82 835.93 666 821.8 660.7 809.23 C 658.05 803.74 651.88 799.03 644.82 796.67 Z M 393.52 866.94 L 428.87 866.94 C 422.45 852.66 416.82 837.59 411.2 822.52 C 405.59 837.59 399.15 852.66 393.54 866.94 Z M 1108.3 698.74 L 96.37 698.74 C 44.17 697.93 0.81 739.59 0 792.46 L 0 930.26 C 0.81 982.33 44.17 1024.79 96.37 1023.98 L 1108.29 1023.98 C 1160.49 1024.79 1203.86 983.13 1204.66 931.05 L 1204.67 791.68 C 1203.86 739.6 1160.49 697.96 1108.3 698.75 Z M 514 960.53 C 512.38 962.92 510.78 963.7 508.37 964.51 C 498.73 965.29 488.29 966.08 478.65 965.29 L 475.45 965.29 C 472.23 965.29 469.82 963.7 468.22 960.53 C 464.2 951.01 460.19 942.29 456.97 932.78 C 453.77 924.06 450.55 915.32 446.54 907.4 C 435.29 906.6 424.86 906.6 412.81 906.6 L 379.08 906.6 C 376.67 912.15 375.05 917.71 372.65 923.26 C 368.585 935.077 364.031 946.721 359 958.16 C 358.089 959.851 356.692 961.231 354.99 962.12 C 350.17 964.49 344.55 965.29 339.73 965.29 L 331.7 965.29 C 328.5 965.29 325.28 964.49 321.27 965.29 C 318.86 965.29 316.45 964.49 314.84 962.92 C 313.999 962.122 313.402 961.101 313.119 959.977 C 312.836 958.853 312.878 957.671 313.24 956.57 C 315.65 948.63 318.06 940.7 322.07 932.78 L 326.89 920.88 C 334.92 901.05 342.96 881.22 350.98 862.19 C 363.83 831.27 376.69 798.74 390.34 767.02 C 391.249 765.325 392.646 763.942 394.35 763.05 C 401.58 759.88 409.61 759.09 417.65 760.68 C 420.85 760.68 423.26 761.48 426.48 760.68 C 429.7 760.68 432.9 762.27 434.51 765.44 C 458.6 820.17 483.49 878.86 516.43 954.99 C 515.62 956.58 514.81 958.96 514.02 960.54 Z M 668.2 883.49 C 645.48 888.21 626.11 893.08 603.39 891.5 L 591.22 891.5 L 591.04 916.08 C 591.04 927.9 591.68 944.2 590.86 956.8 C 590.86 960.74 583.03 963.81 578.97 963.81 L 550.57 963.8 C 546.52 963.8 542.46 960.64 542.46 955.92 C 542.46 900.02 541.65 833.08 542.46 766.94 C 542.46 763 546.52 759.06 550.57 759.06 L 636.56 759.06 C 656.126 758.357 675.341 764.483 690.89 776.38 C 707.94 792.92 714.43 816.54 708.74 838.59 C 704.69 859.85 688.47 876.38 668.19 883.48 Z M 914.95 958.29 C 913.32 960.63 910.9 962.19 908.48 962.19 C 895.54 962.97 883.42 962.97 871.29 962.97 C 868.86 962.97 866.43 962.19 864.82 959.84 C 852.97 944.401 841.378 928.766 830.05 912.94 C 820.34 900.43 810.64 887.16 800.95 874.64 L 793.67 881.68 C 789.62 885.58 784.77 889.5 780.73 893.4 L 779.92 894.18 L 779.92 917.63 C 780.73 930.92 779.92 943.42 779.1 956.71 C 779.1 960.61 775.07 963.74 771.03 963.74 L 743.51 963.74 C 739.48 963.74 735.44 960.61 735.44 955.92 C 734.631 893.129 734.631 830.331 735.44 767.54 C 735.44 763.63 739.47 759.71 743.51 759.71 L 771 759.71 C 775.05 759.71 779.08 762.84 779.08 766.76 C 779.9 790.99 780.71 815.22 779.9 838.68 C 797.68 821.48 815.47 805.07 833.27 787.87 C 842.97 779.27 851.86 770.67 861.56 761.29 C 862.284 760.52 863.162 759.913 864.138 759.508 C 865.114 759.103 866.164 758.909 867.22 758.94 L 868.83 758.94 C 880.15 758.94 892.27 758.94 904.4 759.72 C 906.83 759.72 910.06 761.29 910.87 763.62 C 911.663 764.771 912.088 766.137 912.088 767.535 C 912.088 768.933 911.663 770.299 910.87 771.45 C 907.804 775.963 904.283 780.148 900.36 783.94 C 889.84 792.54 880.14 802.71 869.64 812.08 L 833.26 844.91 C 842.96 857.43 853.46 870.71 863.16 883.22 C 880.15 905.11 897.93 927.77 914.91 950.44 C 915.72 952.983 915.72 955.717 914.91 958.26 Z"
        fill="#000000"/>
</svg>

<svg xmlns="http://www.w3.org/2000/svg" viewBox="0 0 1204 1024"><path d="m925.15 180.72 124.83-120.18a35.195 35.195 0 0 0 8.183-34.56 35.204 35.204 0 0 0-9.783-15.58l-.81-.8c-14.4-12.75-36.01-12.75-51.2 0L861.93 139.34c-168.03-93.92-373.67-93.92-541.69 0L185.01 9.6C169.81-3.93 145.8-3.13 131.4 12c-12.81 13.53-12.81 35.02 0 49.34l124.82 119.38C126.01 277.63 48.99 429.68 48.19 591.44c0 19.89 16.81 35.01 36.01 35.01h1012.18c20.01 0 36.02-15.12 36.02-35.02-.8-161.58-77.62-313.61-207.24-410.71ZM402.36 380.77c-28.91-.8-52.2-24.59-51.4-53.93.81-28.55 24.9-51.56 54.62-50.76 28.1.8 51.39 23.79 51.39 52.35-.8 30.13-24.89 53.13-54.61 52.34Zm399.14 0c-28.91.8-53.01-21.42-54.61-50.76-.81-28.55 21.68-52.34 51.4-53.93h3.2c28.91-.8 53.01 21.42 54.62 50.76.8 28.55-21.68 52.34-51.4 53.93h-3.22Zm-156.69 415.9c-14.12-1.57-29.12-1.57-43.25-1.57h-22.92c-.89 10.99 0 22.77 0 33.76V843h19.4c15.9.78 31.78 0 47.66-2.36 14.12-4.71 20.3-18.84 15-31.41-2.65-5.49-8.82-10.2-15.88-12.56Zm-251.29 70.27h35.35c-6.42-14.28-12.05-29.35-17.67-44.42-5.61 15.07-12.05 30.14-17.66 44.42Zm714.78-168.2H96.37C44.17 697.93.81 739.59 0 792.46v137.8c.81 52.07 44.17 94.53 96.37 93.72h1011.92c52.2.81 95.57-40.85 96.37-92.93l.01-139.37c-.81-52.08-44.18-93.72-96.37-92.93ZM514 960.53c-1.62 2.39-3.22 3.17-5.63 3.98-9.64.78-20.08 1.57-29.72.78h-3.2c-3.22 0-5.63-1.59-7.23-4.76-4.02-9.52-8.03-18.24-11.25-27.75-3.2-8.72-6.42-17.46-10.43-25.38-11.25-.8-21.68-.8-33.73-.8h-33.73c-2.41 5.55-4.03 11.11-6.43 16.66a451.462 451.462 0 0 1-13.65 34.9 9.61 9.61 0 0 1-4.01 3.96c-4.82 2.37-10.44 3.17-15.26 3.17h-8.03c-3.2 0-6.42-.8-10.43 0-2.41 0-4.82-.8-6.43-2.37a6.116 6.116 0 0 1-1.6-6.35c2.41-7.94 4.82-15.87 8.83-23.79l4.82-11.9c8.03-19.83 16.07-39.66 24.09-58.69 12.85-30.92 25.71-63.45 39.36-95.17a9.605 9.605 0 0 1 4.01-3.97c7.23-3.17 15.26-3.96 23.3-2.37 3.2 0 5.61.8 8.83 0 3.22 0 6.42 1.59 8.03 4.76 24.09 54.73 48.98 113.42 81.92 189.55-.81 1.59-1.62 3.97-2.41 5.55Zm154.2-77.04c-22.72 4.72-42.09 9.59-64.81 8.01h-12.17l-.18 24.58c0 11.82.64 28.12-.18 40.72 0 3.94-7.83 7.01-11.89 7.01l-28.4-.01c-4.05 0-8.11-3.16-8.11-7.88 0-55.9-.81-122.84 0-188.98 0-3.94 4.06-7.88 8.11-7.88h85.99a84.44 84.44 0 0 1 54.33 17.32c17.05 16.54 23.54 40.16 17.85 62.21-4.05 21.26-20.27 37.79-40.55 44.89Zm246.75 74.8c-1.63 2.34-4.05 3.9-6.47 3.9-12.94.78-25.06.78-37.19.78-2.43 0-4.86-.78-6.47-3.13a1748.614 1748.614 0 0 1-34.77-46.9c-9.71-12.51-19.41-25.78-29.1-38.3l-7.28 7.04c-4.05 3.9-8.9 7.82-12.94 11.72l-.81.78v23.45c.81 13.29 0 25.79-.82 39.08 0 3.9-4.03 7.03-8.07 7.03h-27.52c-4.03 0-8.07-3.13-8.07-7.82a7311.186 7311.186 0 0 1 0-188.38c0-3.91 4.03-7.83 8.07-7.83H771c4.05 0 8.08 3.13 8.08 7.05.82 24.23 1.63 48.46.82 71.92 17.78-17.2 35.57-33.61 53.37-50.81 9.7-8.6 18.59-17.2 28.29-26.58a7.464 7.464 0 0 1 5.66-2.35h1.61c11.32 0 23.44 0 35.57.78 2.43 0 5.66 1.57 6.47 3.9a6.902 6.902 0 0 1 0 7.83 79.517 79.517 0 0 1-10.51 12.49c-10.52 8.6-20.22 18.77-30.72 28.14l-36.38 32.83c9.7 12.52 20.2 25.8 29.9 38.31 16.99 21.89 34.77 44.55 51.75 67.22.81 2.543.81 5.277 0 7.82Z"/></svg>
